docs/.gitbook/assets/icon-racket-16@light.svg

<svg width="32" height="32" viewBox="0 0 16 16" fill="none" xmlns="http://www.w3.org/2000/svg">
<rect x="0" y="0" width="16" height="16" fill="#fff"/>
<path fill-rule="evenodd" clip-rule="evenodd" d="M4.05345 2.99304L5.49976 4.43934L7.1457 2.79339C6.15644 2.34424 4.99029 2.41079 4.05345 2.99304ZM8.35396 3.70646L6.56042 5.5L7.49976 6.43934L9.2933 4.6458L8.35396 3.70646ZM10.2064 5.85405L8.56042 7.5L10.0067 8.9463C10.589 8.00947 10.6555 6.84331 10.2064 5.85405ZM8.94606 10.007L7.49976 8.56066L5.85381 10.2066C6.84307 10.6558 8.00922 10.5892 8.94606 10.007ZM4.64555 9.29354L6.4391 7.5L5.49976 6.56066L3.70621 8.3542L4.64555 9.29354ZM2.79315 7.14595L4.4391 5.5L2.99279 4.0537C2.41055 4.99053 2.344 6.15669 2.79315 7.14595ZM2.40167 2.40192C4.2709 0.532691 7.30152 0.532696 9.17074 2.40192L10.5978 3.82902C11.6299 4.86109 12.0921 6.24723 11.9845 7.59645C11.9948 7.64601 12.0002 7.69736 12.0002 7.74998C12.0003 9.55818 12.6782 11.0399 13.3742 12.084C13.717 12.5983 14.0595 12.9991 14.3163 13.2711C14.4591 13.3998 14.5722 13.5086 14.6532 13.5892C14.699 13.6347 14.7346 13.6713 14.7596 13.6974L14.7893 13.7287L14.7981 13.7381L14.801 13.7412L14.802 13.7424L14.8024 13.7428C14.8026 13.743 14.8028 13.7432 14.2499 14.25C13.7697 14.8261 13.7695 14.8259 13.7693 14.8257L13.7687 14.8253L13.7674 14.8242L13.764 14.8213L13.7539 14.8128C13.7458 14.8058 13.7349 14.7964 13.7214 14.7846C13.6944 14.7609 13.657 14.7274 13.6107 14.6843C13.5249 14.6047 13.4083 14.4921 13.2705 14.3481C13.2682 14.346 13.2658 14.3439 13.2634 14.3418C12.9692 14.0802 12.5383 13.7296 11.9982 13.3792C10.9097 12.6731 9.42732 12 7.75024 12C7.69817 12 7.64734 11.9947 7.59825 11.9846C6.24839 12.0928 4.86137 11.6307 3.82877 10.5981L2.40168 9.17098C0.53245 7.30176 0.532449 4.27114 2.40167 2.40192ZM10.2667 10.9C10.6032 11.0065 10.9248 11.1295 11.2298 11.263C11.0997 10.9575 10.9805 10.6339 10.8778 10.2932C10.7897 10.3978 10.6964 10.4996 10.5978 10.5981C10.4911 10.7048 10.3806 10.8054 10.2667 10.9ZM14.2499 14.25L13.7697 14.8261C14.0729 15.0788 14.5201 15.0533 14.7926 14.7677C15.065 14.4821 15.0695 14.0342 14.8028 13.7432L14.2499 14.25Z" fill="#000"/>
</svg>

<svg xmlns="http://www.w3.org/2000/svg" width="32" height="32" fill="none" viewBox="0 0 16 16"><path fill="#fff" d="M0 0h16v16H0z"/><path fill="#000" fill-rule="evenodd" d="M4.053 2.993 5.5 4.439l1.646-1.646a3.3 3.3 0 0 0-3.093.2m4.301.713L6.56 5.5l.94.94 1.793-1.794zm1.852 2.148L8.56 7.5l1.447 1.446a3.3 3.3 0 0 0 .2-3.092m-1.26 4.153L7.5 8.561l-1.646 1.646c.99.449 2.155.382 3.092-.2m-4.3-.713L6.439 7.5l-.94-.94-1.793 1.794zM2.793 7.146 4.44 5.5 2.993 4.054a3.3 3.3 0 0 0-.2 3.092m-.391-4.744a4.786 4.786 0 0 1 6.769 0l1.427 1.427a4.78 4.78 0 0 1 1.386 3.767q.015.075.016.154c0 1.808.678 3.29 1.374 4.334.343.514.685.915.942 1.187a10 10 0 0 1 .444.426l.03.032.008.01.003.002.001.001-.552.508-.48.576h-.001l-.002-.002-.003-.003-.01-.008-.033-.028-.11-.1a8 8 0 0 1-.34-.337l-.008-.006a11 11 0 0 0-1.265-.963C10.91 12.673 9.428 12 7.75 12a1 1 0 0 1-.152-.015 4.78 4.78 0 0 1-3.77-1.387L2.403 9.171a4.786 4.786 0 0 1 0-6.77m7.865 8.498q.505.162.963.363a9 9 0 0 1-.352-.97 5 5 0 0 1-.611.607m3.983 3.35-.48.576a.75.75 0 0 0 1.033-1.083z" clip-rule="evenodd"/></svg>
